X: 1
T: Elizabeth Donald  
C: Adam Rennie ()
S:78 rpm record
M: 6/8
L: 1/8
Z: Nigel Gatherer
K: A (orig. in Bb)
|: e |
c2 A AGA | F2 A E2 A | F2 A E2 A | GAB B2 e |
c2 A AGA | F2 A E2 f | dBG EFG | A3 A2 :|
|: c/B/ |
A2 c cBc | A2 c E3 | F2 B BcB | G2 B e3 |
[1 c2 A AGA | F2 A D2 f | dBG EFG | A3 A2 :|
[2 AGA cBA | FDE F2 f | dBG EFG | A3 A2 |]
